svg/u1f50d.svg

<svg viewBox="0 0 128 128" xmlns="http://www.w3.org/2000/svg">
  <g>
    <g>
      <path d="M47.63,12.67c19.85,0,34.8,14.95,34.8,34.8S66.28,83.48,46.43,83.48 s-34.8-14.95-34.8-34.8S27.78,12.67,47.63,12.67" opacity="0.6" fill="#81D4FA"/>
      <path d="M47.63,12.67c19.85,0,34.8,14.95,34.8,34.8S66.28,83.48,46.43,83.48s-34.8-14.95-34.8-34.8 S27.78,12.67,47.63,12.67 M18.02,16.77C-1.66,36.45,8,65.2,15.69,73.05c14.23,14.52,40.83,22.79,60.73,2.88 c18.43-18.43,11.81-41.8-1.17-56.09C66.63,10.36,37.69-2.9,18.02,16.77z" fill="#616161"/>
      <path d="M99.78,90.86l-8.33,8.38l-19.62-19.8c0,0-1.66-3.19,1.62-6.47c3.28-3.28,6.71-1.91,6.71-1.91 L99.78,90.86z" fill="#BDBDBD"/>
      <path d="M88.5,76.96c-1.13-0.9-5.05-3-9.36,1.28c-4.3,4.28-2.55,7.66-1.7,8.91c0,0,30.53,33.87,31.92,35.27 c2.05,2.05,6.26,0.3,10.16-3.6c3.9-3.9,5.78-7.67,3.58-9.87C121.31,107.16,89.63,77.86,88.5,76.96z" fill="#616161"/>
      <path d="M43.92,8.64c19.85,0,36,16.15,36,36s-16.15,36-36,36s-36-16.15-36-36S24.07,8.64,43.92,8.64 M43.92,4.68c-22.06,0-39.95,17.89-39.95,39.95s17.89,39.95,39.95,39.95S83.87,66.7,83.87,44.63S65.98,4.68,43.92,4.68L43.92,4.68 z" fill="#BDBDBD"/>
      <ellipse cx="117.01" cy="116.31" rx="9.25" ry="3.56" fill="#424242" transform="matrix(0.7071 -0.7071 0.7071 0.7071 -47.9727 116.8012)"/>
      <linearGradient id="SVGID_1_" gradientUnits="userSpaceOnUse" x1="20.3852" x2="36.781" y1="18.0245" y2="44.6159">
        <stop offset="0.2853" stop-color="#FFFFFF"/>
        <stop offset="1" stop-color="#FFFFFF" stop-opacity="0"/>
      </linearGradient>
      <path d="M26.52,23.6c-6.52,6.83-9.08,14.39-9.14,22.79c-0.02,3.09,0.41,6.36,2.32,8.78 c1.91,2.42,5.7,3.57,8.2,1.76c1.66-1.2,2.35-3.29,3.16-5.16c1.24-2.87,2.97-5.54,5.1-7.84c2.66-2.88,5.92-5.18,8.46-8.16 c2.54-2.98,4.35-7.01,3.33-10.8c-1.01-3.71-4.67-6.33-8.48-6.76S30.28,19.66,26.52,23.6z" fill="url(#SVGID_1_)"/>
      <g opacity="0.59">
        <path d="M64.05,75.78L64.05,75.78c0-0.46,0.22-0.88,0.59-1.15c1.95-1.39,7.2-4.64,11.73-13.28 C79,56.31,80,52.11,80.28,50.61c0.79-4.24,3.01-2.82,2.7-0.08c-0.36,3.12-3.07,16.85-16.68,26.38 C65.35,77.58,64.05,76.94,64.05,75.78z" fill="#FFFFFF"/>
      </g>
      <g opacity="0.59">
        <path d="M26.39,11.39c-0.13,1.3-2.34,2.53-2.73,2.78c-2.02,1.3-7.02,3.85-11.59,12.47 c-2.13,4.01-3.66,8.14-4.18,10.19c-0.85,3.35-3.14,2.68-2.7-0.05c0.5-3.1,3.85-16.69,17.88-25.58 C24.06,10.58,26.56,9.67,26.39,11.39z" fill="#FFFFFF"/>
      </g>
    </g>
    <linearGradient id="SVGID_2_" gradientUnits="userSpaceOnUse" x1="58.9514" x2="63.0853" y1="95.509" y2="52.792">
      <stop offset="0.2853" stop-color="#FFFFFF"/>
      <stop offset="1" stop-color="#FFFFFF" stop-opacity="0"/>
    </linearGradient>
    <path d="M55.92,73.93c-4.45,0.81-5.77-1.05-5.21-2.9c0.44-1.47,2.08-2.1,3.55-2.54 c7.84-2.35,14.46-8.84,19.27-15.28c0.11,5.59-1.36,8.83-4.05,12.15C66.85,68.59,62.76,72.68,55.92,73.93z" fill="url(#SVGID_2_)"/>
  </g>
</svg>

<svg viewBox="0 0 128 128" xmlns="http://www.w3.org/2000/svg">
  <defs>
    <linearGradient id="SVGID_2_" gradientUnits="userSpaceOnUse" x1="58.9514" x2="63.0853" y1="95.509" y2="52.792">
      <stop offset="0.2853" stop-color="#FFFFFF"/>
      <stop offset="1" stop-color="#FFFFFF" stop-opacity="0"/>
    </linearGradient>
    <linearGradient id="SVGID_1_" gradientUnits="userSpaceOnUse" x1="20.3852" x2="36.781" y1="18.0245" y2="44.6159">
      <stop offset="0.2853" stop-color="#FFFFFF"/>
      <stop offset="1" stop-color="#FFFFFF" stop-opacity="0"/>
    </linearGradient>
  </defs>
  <path d="M47.63,12.67 C67.48,12.67 82.43,27.62 82.43,47.47 C82.43,67.32 66.28,83.48 46.43,83.48 C26.58,83.48 11.63,68.53 11.63,48.68 C11.63,28.83 27.78,12.67 47.63,12.67" fill="#81D4FA" opacity="0.6"/>
  <path d="M47.63,12.67 C67.48,12.67 82.43,27.62 82.43,47.47 C82.43,67.32 66.28,83.48 46.43,83.48 C26.58,83.48 11.63,68.53 11.63,48.68 C11.63,28.83 27.78,12.67 47.63,12.67 M18.02,16.77 C-1.66,36.45 8,65.2 15.69,73.05 C29.92,87.57 56.52,95.84 76.42,75.93 C94.85,57.5 88.23,34.13 75.25,19.84 C66.63,10.36 37.69,-2.9 18.02,16.77 Z" fill="#616161"/>
  <path d="M99.78,90.86 L91.45,99.24 L71.83,79.44 C71.83,79.44 70.17,76.25 73.45,72.97 C76.73,69.69 80.16,71.06 80.16,71.06 L99.78,90.86 Z" fill="#BDBDBD"/>
  <path d="M88.5,76.96 C87.37,76.06 83.45,73.96 79.14,78.24 C74.84,82.52 76.59,85.9 77.44,87.15 C77.44,87.15 107.97,121.02 109.36,122.42 C111.41,124.47 115.62,122.72 119.52,118.82 C123.42,114.92 125.3,111.15 123.1,108.95 C121.31,107.16 89.63,77.86 88.5,76.96 Z" fill="#616161"/>
  <path d="M43.92,8.64 C63.77,8.64 79.92,24.79 79.92,44.64 C79.92,64.49 63.77,80.64 43.92,80.64 C24.07,80.64 7.92,64.49 7.92,44.64 C7.92,24.79 24.07,8.64 43.92,8.64 M43.92,4.68 C21.86,4.68 3.97,22.57 3.97,44.63 C3.97,66.69 21.86,84.58 43.92,84.58 C65.98,84.58 83.87,66.7 83.87,44.63 C83.87,22.56 65.98,4.68 43.92,4.68 L43.92,4.68 Z" fill="#BDBDBD"/>
  <path d="M123.549,109.766 C124.939,111.156 123.137,115.211 119.525,118.824 C115.913,122.436 111.857,124.237 110.467,122.847 C109.077,121.457 110.878,117.401 114.491,113.789 C118.103,110.177 122.158,108.375 123.549,109.766 Z" fill="#424242"/>
  <path d="M26.52,23.6 C20,30.43 17.44,37.99 17.38,46.39 C17.36,49.48 17.79,52.75 19.7,55.17 C21.61,57.59 25.4,58.74 27.9,56.93 C29.56,55.73 30.25,53.64 31.06,51.77 C32.3,48.9 34.03,46.23 36.16,43.93 C38.82,41.05 42.08,38.75 44.62,35.77 C47.16,32.79 48.97,28.76 47.95,24.97 C46.94,21.26 43.28,18.64 39.47,18.21 C35.66,17.78 30.28,19.66 26.52,23.6 Z" fill="url(#SVGID_1_)"/>
  <path d="M64.05,75.78 L64.05,75.78 C64.05,75.32 64.27,74.9 64.64,74.63 C66.59,73.24 71.84,69.99 76.37,61.35 C79,56.31 80,52.11 80.28,50.61 C81.07,46.37 83.29,47.79 82.98,50.53 C82.62,53.65 79.91,67.38 66.3,76.91 C65.35,77.58 64.05,76.94 64.05,75.78 Z" fill="#FFFFFF" opacity="0.59"/>
  <path d="M26.39,11.39 C26.26,12.69 24.05,13.92 23.66,14.17 C21.64,15.47 16.64,18.02 12.07,26.64 C9.94,30.65 8.41,34.78 7.89,36.83 C7.04,40.18 4.75,39.51 5.19,36.78 C5.69,33.68 9.04,20.09 23.07,11.2 C24.06,10.58 26.56,9.67 26.39,11.39 Z" fill="#FFFFFF" opacity="0.59"/>
  <path d="M55.92,73.93 C51.47,74.74 50.15,72.88 50.71,71.03 C51.15,69.56 52.79,68.93 54.26,68.49 C62.1,66.14 68.72,59.65 73.53,53.21 C73.64,58.8 72.17,62.04 69.48,65.36 C66.85,68.59 62.76,72.68 55.92,73.93 Z" fill="url(#SVGID_2_)"/>
</svg>
